assets/icons/view-list.svg

<svg width="16" height="16" viewBox="0 0 16 16" fill="none" xmlns="http://www.w3.org/2000/svg">
<path d="M13.3337 12.1664C13.3337 12.4425 13.1099 12.6664 12.8337 12.6664H3.16675C2.89061 12.6664 2.66675 12.4425 2.66675 12.1664V11.8334C2.66675 11.5572 2.89061 11.3334 3.16675 11.3334H12.8337C13.1099 11.3334 13.3337 11.5572 13.3337 11.8334V12.1664ZM13.3337 8.16638C13.3337 8.44252 13.1099 8.66638 12.8337 8.66638H3.16675C2.89061 8.66638 2.66675 8.44252 2.66675 8.16638V7.83337C2.66675 7.55723 2.89061 7.33337 3.16675 7.33337H12.8337C13.1099 7.33337 13.3337 7.55723 13.3337 7.83337V8.16638ZM13.3337 4.16638C13.3337 4.44252 13.1099 4.66638 12.8337 4.66638H3.16675C2.89061 4.66638 2.66675 4.44252 2.66675 4.16638V3.83337C2.66675 3.55723 2.89061 3.33337 3.16675 3.33337H12.8337C13.1099 3.33337 13.3337 3.55723 13.3337 3.83337V4.16638Z" fill="white"/>
</svg>

<svg xmlns="http://www.w3.org/2000/svg" width="16" height="16" fill="none" viewBox="0 0 16 16" data-c="1"><path fill="#fff" d="M13.334 12.166a.5.5 0 0 1-.5.5H3.167a.5.5 0 0 1-.5-.5v-.333a.5.5 0 0 1 .5-.5h9.667a.5.5 0 0 1 .5.5zm0-4a.5.5 0 0 1-.5.5H3.167a.5.5 0 0 1-.5-.5v-.333a.5.5 0 0 1 .5-.5h9.667a.5.5 0 0 1 .5.5zm0-4a.5.5 0 0 1-.5.5H3.167a.5.5 0 0 1-.5-.5v-.333a.5.5 0 0 1 .5-.5h9.667a.5.5 0 0 1 .5.5z"/></svg>
